X:1
T:The Man From Skye
M:C|
L:1/8
Q:80
C:P.M. D. MacLeod Q.O.H
S:Hornpipe
K:HP
|: {g}B/4d3/4 | \
{gef}e{A}e/2d/2{g}d/2e/2{A}e/2d/2 | \
{g}B/2e/2{A}e/2d/2{gBd}B{e}A |
{g}G/2{d}G/2{e}G/2{d}B/2{g}G{d}B | \
{g}G/2{d}B/2{G}B/2d/2{gBd}B{Gdc}d:|2  | \
{gef}e{A}e/2d/2{g}d/2e/2{A}e/2d/2 |
{g}B/2e/2{A}e/2d/2{gBd}B{g}A/4{d}G3/4 | \
{g}A/2{d}A/2{e}A/2{d}B/2{gef}e{gde}d3/4B/4 | \
{g}A2{GAG}A ::
{g}B/4d3/4 | \
{gef}e{gf}g{ag}ae/2f/2 | \
{a}g/2f/2{g}e/2d/2{gBd}B{e}A |
{g}G/2{d}G/2{e}G/2{d}B/2{g}G{d}B | \
{g}G/2{d}B/2{G}B/2d/2{gBd}B{Gdc}d|1  | \
{g}e/2f/2g/2e/2{ag}a{GdG}a |
g/2f/2{g}e/2d/2{gBd}B{g}A/4{d}G3/4 | \
{g}A/2{d}A/2{e}A/2{d}B/2{gef}e{gde}d3/4B/4 | \
{g}A2{GAG}A ::
{g}B/4d3/4 | \
{gef}e{g}A{GAG}A{g}B/2d/2 | \
{g}e/4g3/4{gef}e3/4d/4{gBd}B{e}A/2{d}B/2 |
d/2{e}G/2{gGd}G{g}B/4{d}A3/4{g}B/4{d}G3/4 | \
{g}B/4d3/4{e}G3/4d/4{gBd}B{Gdc}d:|2  | \
{gef}e/2A/2{gAd}A{g}B/4{d}A3/4{g}B/4d3/4 |
{g}e/2g/2{a}d/2e/2{gBd}B{g}A/4{d}G3/4 | \
{g}A/2{d}A/2{e}A/2{d}B/2{gef}e{gde}d3/4B/4 | \
{g}A2{GAG}A ::
{g}B/4d3/4 | \
{gef}e{A}e/2d/2{gef}e{A}e/2f/2 | \
{a}g/2f/2{g}e/2g/2{aBd}B{e}A |
{g}G/2{d}G/2{e}G/2{d}B/2{g}G{d}B | \
{g}G/2{d}B/2{G}B/2d/2{gBd}B{Gdc}d|1  | \
{gef}e{A}e/2d/2{gef}e{A}e/2f/2 |
{a}g/2f/2{g}e/2d/2{gBd}B{g}A/4{d}G3/4 | \
{g}A/2{d}A/2{e}A/2{d}B/2{gef}e{gde}d3/4B/4 | \
{g}A2{GAG}A :|
